X: 2
T: The Old Bush
R: reel
M: 4/4
L: 1/8
K: Dmix
A2 GA cA ~A2 | d^cde fdec | A2 GA cAGA | dfef cAdc |A2 GA cAGB | Add^c defg | (3agf (3gfe fde^c | dfed cA A2 ||eg ~g2 edcd | efge ~c3 d | eg ~g2 afge | dfed cA A2 |eg ~g2 ag ~g2 | fgfe defg | (3agf (3gfe fde^c | dfed cA A2 ||


Tune 1499	Setting 23587

